X:1
T:O Little Girl what Makes You Look so Clever
M:4/4
L:1/8
S:Strosnider, 1928 (southwestern Pa.)
B:Bayard - Dance to the Fiddle, March to the Fife (1981, No. 261B)
K:G
D>G|OB>BA>G B>BB>c|e>d B2G2 D>G|B>BA>G B>BA>G|B>BA>G {A}G2!fine!||
{d}g3f gg d2|e<aa2 a4|g3f g2g2|e>fg>f e>d B2!D.C.!||

